**kern
*I"钢琴, MIDI
*clefG2
*k[]
*M4/4
*MM158
=1
1r
=2
*k[f#]
1r
=3
1r
=4
1r
=5
1r
=6
1r
=7
1r
=8
1r
=9
1r
=10
*8va
4r
8eeL
8ddJ
8eeL
8dd
8ee
8ddJ
=11
8eeL
8ee
8ee
[8ggJ
4gg]
4r
=12
4r
8eeL
8ddJ
8eeL
8dd
8ee
8ddJ
=13
8bbL
8bb
8bb
[8ggJ
4gg]
4r
=14
4r
8eeL
8ddJ
8eeL
8dd
8ee
8ddJ
=15
8eeL
8ee
8ee
[8ggJ
8ggL]
8dd
8dd
8ddJ
=16
4gg
8r
8ee
4gg
8r
8ee
=17
4gg
4gg
8ggL
8dd
8dd
8ddJ
=18
4gg
8r
8ee
4gg
8r
8ee
=19
4gg
8r
8dd
8ddL
8dd
8dd
[8aaJ
=20
8aa]
[4.gg
4.gg_
16gg]
16r
=21
1r
=22
4gg
8r
8ee
4gg
8r
8ee
=23
4gg
8r
8dd
8ddL
8dd
8dd
[8aaJ
=24
8aa]
[4.gg
4.gg_
16gg]
16r
=25
1r
=26
4r
8eeL
8ddJ
8eeL
8dd
8ee
8ddJ
=27
8eeL
8ee
8ee
[8ggJ
4gg]
4r
=28
4r
8eeL
8ddJ
8eeL
8dd
8ee
8ddJ
=29
8bbL
8bb
8bb
[8ggJ
4gg]
4r
=30
4r
8eeL
8ddJ
8eeL
8dd
8ee
8ddJ
=31
8eeL
8ee
8ee
[8ggJ
8ggL]
8dd
8dd
8ddJ
=32
4gg
8r
8ee
4gg
8r
8ee
=33
4gg
4gg
8ggL
8dd
8dd
8ddJ
=34
4gg
8r
8ee
4gg
8r
8ee
=35
4gg
8r
8dd
8ddL
8dd
8dd
[8aaJ
=36
8aa]
[4.gg
4.gg_
16gg]
16r
=37
1r
=38
4gg
8r
8ee
4gg
8r
8ee
=39
4gg
8r
8dd
8ddL
8dd
8dd
[8aaJ
=40
8aa]
[4.gg
4.gg_
16gg]
16r
=41
1r
=42
8bbL
8ddd
8aa
8ggJ
8aaL
8aa
8gg
8aaJ
=43
8r
4dd
8dd
4ee
4gg
=44
8bbL
8ddd
8aa
8ggJ
8aaL
8aa
8gg
8aaJ
=45
8r
4dd
8dd
4ee
4gg
=46
8bbL
8ddd
8aa
8ggJ
8aaL
8aa
8gg
8aaJ
=47
8r
4dd
8dd
4ee
4gg
=48
8.bb-XL
[16aaJk
8aaL]
8ggJ
8.aaL
[16ggJk
8ggL]
8eeJ
=49
2gg
4r
4ccc
=50
4gg
8r
8ee
4gg
8r
8ee
=51
4gg
8r
8dd
8ddL
8dd
8dd
[8aaJ
=52
8aa]
[4.gg
4.gg_
16gg]
16r
=53
1r
=54
4gg
8r
8ee
4gg
8r
8ee
=55
4gg
8r
8dd
8ddL
8dd
8dd
[8aaJ
=56
8aa]
[4.gg
4.gg_
16gg]
16r
=57
1r
=58
1r
=59
1r
=60
1r
=61
1r
=62
8eeL
8ee
8bb
8bbJ
4aa
8ggL
[8aaJ
=63
8aaL]
8gg
8ee
[8ggJ
4gg]
4r
=64
8eeL
8ee
8bb
8bbJ
4aa
8ggL
[8aaJ
=65
8aaL]
8gg
8ee
[8ggJ
4gg]
4r
=66
8eeL
8ee
8bb
8bbJ
4aa
8eeL
8eeJ
=67
8bbL
8bbJ
4aa
4gg
4aa
=68
4aa
4gg
4aa
4bb
=69
4ddd
4bb
8aaL
8ggJ
4gg
=70
4ee
8bbL
8bbJ
8aaL
8gg
8gg
8ggJ
=71
8aaL
8gg
8ee
[8ggJ
4gg]
4r
=72
8eeL
8ee
8bb
8bbJ
8aaL
8gg
8gg
8ggJ
=73
8aaL
8gg
8ee
[8ggJ
4gg]
4r
=74
8eeL
8ee
8bb
8bbJ
4aa
8eeL
8eeJ
=75
8bbL
8bbJ
4aa
4gg
4aa
=76
4aa
4gg
4aa
4bb
=77
4ddd
4bb
8aaL
8ggJ
4gg
=78
4ee
8r
8gg
4ee
8r
8gg
=79
4ee
8r
8ee
4bb
4bb
=80
4ee
8r
8gg
4ee
8r
8gg
=81
4ee
8r
8ee
4bb
4bb
=82
4bb'
4gg'
4aa'
4ee'
=83
4gg'
4dd'
4ee'
8gg'L
8ee'J
=84
4ee
8r
8ee
4ee
8r
8ee
=85
4gg
4gg
8ggL
8dd
8dd
8ddJ
=86
4gg
8r
8ee
4gg
8r
8ee
=87
4gg
8r
8dd
8ddL
8dd
8dd
[8aaJ
=88
8aa]
[4.gg
4.gg_
16gg]
16r
=89
1r
=90
4gg
8r
8ee
4gg
8r
8ee
=91
4gg
8r
8dd
8ddL
8dd
8dd
[8aaJ
=92
8aa]
[4.gg
4.gg_
16gg]
16r
=93
1r
=94
8bbL
8ddd
8aa
8ggJ
8aaL
8aa
8gg
8aaJ
=95
8r
4dd
8dd
4ee
4gg
=96
8bbL
8ddd
8aa
8ggJ
8aaL
8aa
8gg
8aaJ
=97
8r
4dd
8dd
4ee
4gg
=98
8bbL
8ddd
8aa
8ggJ
4aa
8ggL
8aaJ
=99
8r
4dd
8dd
4ee
4gg
=100
8.bb-XL
[16aaJk
8aaL]
8ggJ
8.aaL
[16ggJk
8ggL]
8eeJ
=101
2gg
4r
4gg
=102
4gg
4r
2r
=103
1r
=104
4gg
4r
2r
=105
1r
=106
4gg
4r
2r
=107
1r
=108
4gg
4r
2r
=109
1r
=110
4gg
4r
2r
=111
1r
=112
4gg
4r
2r
=113
1r
=114
4gg
4r
2r
=115
1r
=116
4gg
4r
2r
=117
1r
=118
4gg
4r
2r
*X8va
==
*-
